X:055
%%topmargin 3cm
T:Bob With the One Horn
B:The Nelson Music Collection
N:Newton F. Tolman & K. Dep. Gilbert
Z:Transcribed by Ralph Palmer
R:Rant
L:1/8
M:C|
K:Gm
DGGF DGGA | F2 (AF) cFAF | DGGF DGGg | fdcA (BG) G2 :|
g2 (bg) dgbg | f2 (af) cfaf | g2 (bg) dgbg | agfa g2 (ga) |
((3bag) ((3agf) gfgd | AFFA cAFA | DGGF DGGg | gdcA (BG) G2 |]

